X: 1
T: Tripping Down The Stairs
M: 4/4
L: 1/8
R: reel
K: Gmaj
|: BG~G2 BGcG | BGDC B,CDC | (3B,A,G, B,D ECEG | (3FED EF GFGA|
BG~G2 BGcG | BGDC B,CDC | (3B,A,G, B,D ECEG |1 (3FED EF G2GA :|2 FDEF G2ga ||
|: bg~g2 egde | cdBc ABGA | FGEF DECD | B,CA,B, G,2 B,D |
GABc dBGB | AB (3cBA BGDC | (3B,A,G, B,D ECEG |1 (3FED EF G2ga :|2 (3FED EF G2GA ||
